X:3
T:Lessley House Quick Step
C:Robert Petrie
S:Petrie's Collection of Strathspey Reels and Country Dances &c., 1790
Z:Steve Wyrick , 3/5/04
N:Petrie's First Collection, page 2
L:1/8
M:6/8
R:Quickstep
K:Bb
B,|F3  BAG|FED CDB,|EFG FED|GEC C2 D/E/|
   FDF BAG|FBF DEF |GAB ABc|dBB B2    :|
 g|fdB fdB|cAF cAF |EFG FED|GEC C2g    |
   fdB fdB|cAF cAF |GAB cde|dBB B2g    |
   fdB fdB|cAF cAF |EFG FED|GEC CDE    |
   FED GFE|AGF BAG |ABc Fec|dBB B2    |]
